X: 12
T:Killarney Boys of Pleasure, The
T:Docherty's Reel
M:C|
L:1/8
R:Reel
K:EDor
E2FD E2FA|BFAF DEFA|BABd e2ed|BdAF DEFD|!
E2FD E2FA|BFAF DEFA|BABd ~e3d|1BdAF FEED:|2BdAF FEEA|!
|:Be~e2 Befe|BdAF DEFA|f2fe f2fe|dBAF DEFA|!
Be~e2 Befe|(3Bcd AF DEFA|f2fe defe|1dBAF E2FA:|2dBAF E3D|]!
